!!!COM: Frank Martin
!!!OTL: [T543_Mai-w11p29h17m4-h18m2]
**kern	**kern	**dynam	**kern	**dynam	**kern	**dynam
*grp:A	*grp:A	*grp:A	*grp:A	*grp:A	*grp:B	*grp:B
*part3	*part3	*part3	*part2	*part2	*part1	*part1
*staff4	*staff3	*	*staff2	*	*staff1	*
*I"Piano	*	*	*I"Violoncello	*	*I"Violin	*
*I'Pno.	*	*	*I'Vc.	*	*I'Vln.	*
!!pagebreak:original
*clefF4	*clefG2	*	*clefF4	*	*clefG2	*
*k[f#c#]	*k[f#c#]	*	*k[f#c#]	*	*k[f#c#]	*
*D:	*D:	*	*D:	*	*D:	*
*M4/4	*M4/4	*	*M4/4	*	*M4/4	*
*	*	*	*	*	*Xtuplet	*
!	!	!	!	!	!LO:TX:t=[half]=108	!
!	!LO:TX:t=[half]=108	!LO:DY:ed=brack	!	!LO:DY:ed=brack	!LO:TX:a:i:t=[sotto voce]	!LO:DY:ed=brack
8ryy	8ryy	4ryy	8ryy	4ryy	12eeL	pp
.	.	.	.	.	12ff#	.
8ryy	8ryy	.	8ryy	.	.	.
.	.	.	.	.	12eeJ	.
8ryy	8ryy	.	8ryy	.	12eeL	.
.	.	.	.	.	12cc#	.
8r'yy	8r'yy	.	8r'yy	.	.	.
.	.	.	.	.	12aJ	.
8ryy	8ryy	.	8ryy	.	12cc#L	.
.	.	.	.	.	12dd	.
8ryy	8ryy	.	8r'yy	.	.	.
.	.	.	.	.	12eeJ	.
=1	=1	=1	=1	=1	=1	=1
8ryy	8ryy	.	8ryy	.	12ff#L	.
.	.	.	.	.	12gg	.
8ryy	8ryy	.	8ryy	.	.	.
.	.	.	.	.	12ff#J	.
8ryy	8ryy	.	8ryy	.	12eeL	.
.	.	.	.	.	12ff#	.
8ryy	8ryy	.	8ryy	.	.	.
.	.	.	.	.	12eeJ	.
8ryy	8ryy	.	8ryy	.	6.dd	.
8r'yy	8ryy	.	8ryy	.	.	.
=2	=2	=2	=2	=2	=2	=2
8ryy	8ryy	.	8ryy	.	12ff#L	.
.	.	.	.	.	12gg	.
8ryy	8ryy	.	8ryy	.	.	.
.	.	.	.	.	12ff#J	.
8ryy	8ryy	.	8ryy	.	12ff#L	.
.	.	.	.	.	12dd	.
8r'yy	8ryy	.	8r'yy	.	.	.
.	.	.	.	.	12bJ	.
8ryy	8ryy	.	8ryy	.	12cc#L	.
.	.	.	.	.	12dd	.
8ryy	8r'yy	.	8r'yy	.	.	.
.	.	.	.	.	12eeJ	.
=3	=3	=3	=3	=3	=3	=3
8ryy	8ryy	.	8ryy	.	12ff#L	.
.	.	.	.	.	12gg	.
8ryy	8r'yy	.	8ryy	.	.	.
.	.	.	.	.	12ff#J	.
8ryy	4ryy	.	16ryy	4ryy	12eeL	.
.	.	.	16ryy	.	.	.
.	.	.	.	.	12ff#	.
8ryy	.	.	16ryy	.	.	.
.	.	.	.	.	12eeJ	.
.	.	.	16ryy	.	.	.
8ryy	8ryy	.	8ryy	.	6dd	.
8ryy	8ryy	.	8ryy	4ryy	.	.
.	.	.	.	.	12ff#	.
=4	=4	=4	=4	=4	=4	=4
8ryy	8ryy	.	8ryy	.	12eeL	.
.	.	.	.	.	12ff#	.
8ryy	8ryy	.	8ryy	.	.	.
.	.	.	.	.	12eeJ	.
8ryy	8ryy	.	8ryy	.	12eeL	.
.	.	.	.	.	12cc#	.
8r'yy	8ryy	.	8r'yy	.	.	.
.	.	.	.	.	12aJ	.
8ryy	8ryy	.	8ryy	.	12cc#L	.
.	.	.	.	.	12dd	.
8ryy	8r'yy	.	8r'yy	.	.	.
.	.	.	.	.	12eeJ	.
!!linebreak:original
=5	=5	=5	=5	=5	=5	=5
4ryy	2ryy	.	8ryy	.	12ff#L	.
.	.	.	.	.	12gg	.
.	.	.	8ryy	.	.	.
.	.	.	.	.	12ff#J	.
4ryy	.	.	8ryy	.	12bbL	.
.	.	.	.	.	12ff#	.
.	.	.	8ryy	.	.	.
.	.	.	.	.	12eeJ	.
4ryy	4ryy	.	8ryy	.	6dd	.
.	.	.	8ryy	.	.	.
.	.	.	.	.	12ee	.
=6	=6	=6	=6	=6	=6	=6
4ryy	4ryy	.	8ryy	.	12ff#L	.
.	.	.	.	.	12gg	.
.	.	.	8ryy	.	.	.
.	.	.	.	.	12ff#J	.
4ryy	4ryy	.	8ryy	.	12ff#L	.
.	.	.	.	.	12dd	.
.	.	.	8ryy	.	.	.
.	.	.	.	.	12bJ	.
4ryy	4ryy	.	8ryy	.	12cc#L	.
.	.	.	.	.	12dd	.
.	.	.	8ryy	.	.	.
.	.	.	.	.	12eeJ	.
=7	=7	=7	=7	=7	=7	=7
4ryy	4ryy	.	8ryy	.	12ff#L	.
.	.	.	.	.	12gg	.
.	.	.	8ryy	.	.	.
.	.	.	.	.	12ff#J	.
4ryy	2ryy	.	16ryy	.	12bbL	.
.	.	.	16ryy	.	.	.
.	.	.	.	.	12ff#	.
.	.	.	16ryy	.	.	.
.	.	.	.	.	12eeJ	.
.	.	.	16ryy	.	.	.
4ryy	.	.	8ryy	.	6dd	.
.	.	.	8ryy	.	.	.
.	.	.	.	.	12ff#	.
=8	=8	=8	=8	=8	=8	=8
4ryy	4ryy	.	8ryy	.	12eeL	.
.	.	.	.	.	12ff#	.
.	.	.	8ryy	.	.	.
.	.	.	.	.	12eeJ	.
4ryy	4ryy	.	8ryy	.	12eeL	.
.	.	.	.	.	12cc#	.
.	.	.	8ryy	.	.	.
.	.	.	.	.	12aJ	.
4ryy	4ryy	.	8ryy	.	12cc#L	.
.	.	.	.	.	12dd	.
.	.	.	8ryy	.	.	.
.	.	.	.	.	12eeJ	.
*	*	*	*clefC4	*	*	*
!!LO:REH:t=18
=9	=9	=9	=9	=9	=9	=9
!	!	!LO:DY:t=meno %s	!	!LO:DY:t=meno %s	!	!LO:DY:t=meno %s
4ryy	4ryy	4ryy	4.ryy	4ryy	12bbL	p
.	.	.	.	.	12bb	.
.	.	.	.	.	12bbJ	.
4ryy	8ryy	.	.	.	6bb	.
.	8ryy	.	8ryy	.	.	.
.	.	.	.	.	12ccc#	.
4ryy	4ryy	.	4ryy	.	6ddd	.
.	.	.	.	.	12fff#	.
=10	=10	=10	=10	=10	=10	=10
!	!	!LO:HP:t=poco a poco %s	!	!LO:HP:t=poco a poco %s	!	!LO:HP:t=poco a poco %s
4ryy	8ryy	4ryy	8ryy	4ryy	12bbL	<
.	.	.	.	.	12bb	.
.	8ryy	.	8ryy	.	.	.
.	.	.	.	.	12bbJ	.
4ryy	4ryy	.	4.ryy	.	6ddd	.
.	.	.	.	.	12fff#	.
4ryy	4ryy	.	.	.	12eeeL	.
.	.	.	.	.	12ccc#	.
.	.	.	8ryy	.	.	.
.	.	.	.	.	12aaJ	.
=	=	=	=	=	=	=
*-	*-	*-	*-	*-	*-	*-
!!!system-decoration: s1,s2[({(s3,s4)})]
